icons/lines/receipt-edit.svg

<svg xmlns="http://www.w3.org/2000/svg" width="24" height="24" viewBox="0 0 24 24" fill="none" stroke="currentColor" stroke-width="2" stroke-linecap="round" stroke-linejoin="round" >
  <path d="M20.5 11.3V7.04001C20.5 3.01001 19.56 2 15.78 2H8.22C4.44 2 3.5 3.01001 3.5 7.04001V18.3C3.5 20.96 4.96001 21.59 6.73001 19.69L6.73999 19.68C7.55999 18.81 8.80999 18.88 9.51999 19.83L10.53 21.18"/>
  <path d="M8 7H16"/>
  <path d="M9 11H15"/>
  <path d="M18.211 14.7703L14.671 18.3103C14.531 18.4503 14.401 18.7103 14.371 18.9003L14.181 20.2503C14.111 20.7403 14.451 21.0803 14.941 21.0103L16.291 20.8203C16.481 20.7903 16.751 20.6603 16.881 20.5203L20.421 16.9803C21.031 16.3703 21.321 15.6603 20.421 14.7603C19.531 13.8703 18.821 14.1603 18.211 14.7703Z" stroke-miterlimit="10"/>
  <path d="M17.6992 15.2803C17.9992 16.3603 18.8392 17.2003 19.9192 17.5003" stroke-miterlimit="10"/>
  </svg>

<svg xmlns="http://www.w3.org/2000/svg" width="24" height="24" viewBox="0 0 24 24" fill="none" stroke="currentColor" stroke-width="2" stroke-linecap="round" stroke-linejoin="round">
  <path d="M14.671 18.31a1.23 1.23 0 0 0-.3.59l-.19 1.35c-.07.49.27.83.76.76l1.35-.19a1.2 1.2 0 0 0 .59-.3l3.54-3.54c.61-.61.9-1.32 0-2.22-.89-.89-1.6-.6-2.21.01z" />
  <path d="M17.7 15.28a3.19 3.19 0 0 0 2.22 2.22" />
  <path d="M20.5 11.3V7.04c0-4.03-.94-5.04-4.72-5.04H8.22C4.44 2 3.5 3.01 3.5 7.04V18.3c0 2.66 1.46 3.29 3.23 1.39.83-.88 2.08-.81 2.79.14l1.01 1.35" />
  <path d="M8 7h8" />
  <path d="M9 11h6" />
</svg>
